source/img/logotypes/logo-litecoin.svg

<svg width="80" height="80" viewBox="0 0 80 80" fill="none" xmlns="http://www.w3.org/2000/svg">
<g clip-path="url(#clip0)">
<circle cx="40" cy="40" r="40" fill="white"/>
<path d="M40 0C32.0888 0 24.3552 2.34596 17.7772 6.74121C11.1992 11.1365 6.07234 17.3836 3.04484 24.6927C0.0173314 32.0017 -0.774802 40.0444 0.768607 47.8036C2.31202 55.5628 6.12165 62.6902 11.7157 68.2843C17.3098 73.8784 24.4372 77.688 32.1964 79.2314C39.9556 80.7748 47.9983 79.9827 55.3074 76.9552C62.6164 73.9277 68.8635 68.8008 73.2588 62.2228C77.6541 55.6448 80 47.9112 80 40C80 29.3913 75.7857 19.2172 68.2843 11.7157C60.7828 4.21427 50.6087 0 40 0V0ZM39.1267 12.26H47.74C47.9162 12.2602 48.09 12.3012 48.2477 12.3796C48.4055 12.4581 48.543 12.5719 48.6495 12.7123C48.756 12.8527 48.8286 13.0158 48.8616 13.1888C48.8947 13.3619 48.8873 13.5403 48.84 13.71L42.0733 36.77L48.4234 34.83L47.0634 39.4467L40.65 41.3133L36.49 55.36H58.7433C58.9197 55.361 59.0935 55.4027 59.251 55.482C59.4086 55.5613 59.5457 55.6759 59.6515 55.817C59.7574 55.958 59.8292 56.1217 59.8613 56.2951C59.8935 56.4685 59.885 56.647 59.8367 56.8167L57.8967 63.4833C57.8038 63.8005 57.6107 64.079 57.3463 64.2773C57.082 64.4756 56.7605 64.583 56.43 64.5833H22.4433L28.1867 45.1767L21.8334 47.11L23.2333 42.5733L29.6 40.64L37.6734 13.3733C37.7619 13.0545 37.952 12.7733 38.2149 12.5723C38.4778 12.3714 38.7991 12.2617 39.13 12.26H39.1267Z" fill="#59C19C"/>
</g>
<defs>
<clipPath id="clip0">
<rect width="80" height="80" fill="white"/>
</clipPath>
</defs>
</svg>

<svg width="80" height="80" fill="none" xmlns="http://www.w3.org/2000/svg"><g clip-path="url(#clip0)"><circle cx="40" cy="40" r="40" fill="#fff"/><path d="M40 0a40 40 0 100 80 40 40 0 000-80zm-.873 12.26h8.613a1.144 1.144 0 011.1 1.45l-6.767 23.06 6.35-1.94-1.36 4.617-6.413 1.866-4.16 14.047h22.253a1.143 1.143 0 011.094 1.457l-1.94 6.666a1.53 1.53 0 01-1.467 1.1H22.443l5.744-19.406-6.354 1.933 1.4-4.537L29.6 40.64l8.073-27.267a1.52 1.52 0 011.457-1.113h-.003z" fill="#59C19C"/></g><defs><clipPath id="clip0"><path fill="#fff" d="M0 0h80v80H0z"/></clipPath></defs></svg>
